images/spearhead/premium-subscriptions.svg

<svg height="67" viewBox="0 0 70 67" width="70" xmlns="http://www.w3.org/2000/svg"><path d="m35 49.755146 15.1690488 7.9244364-2.8490929-16.8754082 12.2240807-11.9778373-16.9298851-2.5051395-7.6141515-15.3271468-7.6141515 15.3271468-16.9298851 2.5051395 12.2240807 11.9778373-2.8490929 16.8754082zm0 5.5184981-21.6311896 11.300312 4.0628302-24.0644723-17.4316406-17.0804953 24.1421568-3.5723498 10.8578432-21.8566387 10.8578432 21.8566387 24.1421568 3.5723498-17.4316406 17.0804953 4.0628302 24.0644723z" fill="#fff"/></svg>

<?xml version="1.0" encoding="UTF-8"?>
<svg width="70px" height="67px" viewBox="0 0 70 67" version="1.1" xmlns="http://www.w3.org/2000/svg" xmlns:xlink="http://www.w3.org/1999/xlink">
    <!-- Generator: Sketch 50.2 (55047) - http://www.bohemiancoding.com/sketch -->
    <title>Icon</title>
    <desc>Created with Sketch.</desc>
    <defs></defs>
    <g id="Desktop" stroke="none" stroke-width="1" fill="none" fill-rule="evenodd">
        <g id="Timify" transform="translate(-605.000000, -2829.000000)" fill="#FFFFFF">
            <g id="Details" transform="translate(80.000000, 2592.000000)">
                <g id="Molecules/Cards/Features" transform="translate(480.000000, 192.000000)">
                    <g id="icon">
                        <g id="Atoms/Icons/80/White/Premium" transform="translate(40.000000, 40.000000)">
                            <g id="icon" transform="translate(5.000000, 5.000000)">
                                <path d="M35,49.755146 L50.1690488,57.6795824 L47.3199559,40.8041742 L59.5440366,28.8263369 L42.6141515,26.3211974 L35,10.9940506 L27.3858485,26.3211974 L10.4559634,28.8263369 L22.6800441,40.8041742 L19.8309512,57.6795824 L35,49.755146 Z M35,55.2736441 L13.3688104,66.5739561 L17.4316406,42.5094838 L0,25.4289885 L24.1421568,21.8566387 L35,0 L45.8578432,21.8566387 L70,25.4289885 L52.5683594,42.5094838 L56.6311896,66.5739561 L35,55.2736441 Z" id="Star" fill-rule="nonzero"></path>
                            </g>
                        </g>
                    </g>
                </g>
            </g>
        </g>
    </g>
</svg>
